X:1
T:Gdynia, 11.11.11 D
T:Gdynia, 11.11.11 D
T:William James Kirkpatrick, 1905
T:Public Domain Courtesy of the Cyber Hymnal™
C:William James Kirkpatrick, 1905
Z:Public Domain
Z:Courtesy of the Cyber Hymnal™
%%score ( 1 2 ) ( 3 4 )
L:1/8
Q:1/4=87
M:4/4
K:Ab
V:1 treble 
V:2 treble 
V:3 bass 
V:4 bass 
V:1
 [CE][Ec][Ec][DB] [DB] [CA]2 z | E[Ed][Ed][Ec] [EB]4 | [Ec][Ee][Ee][Ec] [Fd][Fc][FB][FA] | %3
 [EG]2 [=DA]2 [_DB]4 | [CE][Ec][Ec][DB] [DB] [CA]2 z | E[Ed][Gd][Ac] [EB]4 | %6
 [Ec][_Ge][Ge][Ge] [Fd][Fc][FB][FA] | [Ec]2 [DB]2 [CA]4 | [Ec]4- [Ec][DB][CA][CF] | %9
 [DG]4 [DG]2 z2 | [Bd]4- [Bd][Ac][GB]G | [Ec]6 z2 | [Ge]4- [Ge][Gd][Gc][GB] | [FA]4 [Fd]2 z2 | %14
 [Ec]2 z [CA] [Ec]2 [DB]2 | [CA]6 z2 |] %16
V:2
 x8 | E x7 | x8 | x8 | x8 | E x7 | x8 | x8 | x8 | x8 | x8 | x8 | x8 | x8 | x8 | x8 |] %16
V:3
 [A,,A,][A,,A,][A,,A,][A,,E,] [A,,E,] [A,,E,]2 z | [E,G,][E,B,][E,B,][E,A,] [E,G,]4 | %2
 A,[A,C][A,C]A, [D,A,][D,A,][D,D][D,D] | [E,B,]2 [F,B,]2 [G,B,]4 | %4
 [A,,A,][A,,A,][A,,A,][A,,E,] [A,,E,] [A,,E,]2 z | [E,G,][E,B,][E,B,][E,A,] [E,G,]4 | %6
 A,[A,C][A,C][A,C] [D,A,][D,A,][D,A,][D,A,] | [E,A,]2 [E,G,]2 [A,,A,]4 | %8
 [A,,A,][A,,A,][A,,A,][A,,A,] [A,,A,][A,,A,] z2 | [E,B,][E,B,][E,B,][E,B,] [E,B,]2 z2 | %10
 [E,G,][E,G,][E,G,][E,G,] [E,G,] z3 | [A,,A,][A,,A,][A,,A,][A,,A,] [A,,A,]2 z2 | %12
 [A,C][A,C][A,C][A,C] [A,C]A, z2 | [D,A,][D,A,][D,A,][D,A,] [D,A,][D,A,] z2 | %14
 [E,A,]2 z [E,A,] [E,A,]2 [E,G,]2 | [A,,A,]6 z2 |] %16
V:4
 x8 | x8 | A, x A, x5 | x8 | x8 | x8 | A, x7 | x8 | x8 | x8 | x8 | x8 | x5 A, x2 | x8 | x8 | x8 |] %16

